X: 1
T: Rechberg Castle
C: Anselm Lingnau
R: waltz
N: Written for the wedding of Sybille Föhrenbach and Rudi Spägele -- 9 September 2000.
B: Anselm Lingnau "Nine Weddings (And No Funeral)" p.20
F: http://www.anselms.net/SCD/wbook/wbook.pdf
Z: 2012 John Chambers <jc:trillian.mit.edu>
M: 3/4
L: 1/8
K: D
FE |\
"D"D3 E FG | "A"A4 Bc | "Bm"d4 e2 | "A"cA- A4 |\
"G"B3 c dB | "D"Ad- d2 F2 | "Em"E4 D2 | "A"E4 FE |
"D"D3 E FG | "A"A4 Bc | "Bm"d4 e2 | "A"c3 B A2 |\
"G"Bc d4 | "D"Ac d4 |1 "Em"B2 e2d2 "A7"cB AG :|2 "Em"B2 e2 "A7"c2 | "D"d4 ||
|: fg |\
"D"a4 fe | "Bm"dB eB fB | "Em"g4 ed | "A"cE BE AE |\
"G"B3 c dB | "D"Ad- d2 F2 | "Em"E2 B2 d2 | "A"c3 d e2 |
"D"a4 dd' | "G"bd ad gd | "A"e4 ag | "D"fA eA dA |\
"G"Bc d4 | "C"Ac d4 | "Em"B2 e2 "A7"c2 | "D"d4 :|
